albertroad.htmlalbertroad.htmlalbertroad.htmlalbertroad.htmlalbertroad.htmlalbertroad.htmlalbertroad.htmlalbertroad.htmlalbertroad.html<PRE>T:Burren, The
T:Burren, The
M:C|
L:1/8
R:reel
D:Brendan Bulger: Brendan Bulger
Z:Devin McCabe
K:D
ABdB AF F/2F/2F|AFAd ~f3g|afef d~B3|dBAF EDFG|
!ABdB AF F/2F/2F|AFAd ~f3g|afef d~B3|1Adfe d3B:|2Adfe dcde|
!:f2ed BAFA|defg a2fa|g2fg edBA|dBAF EDFG|
!ABdB AF F/2F/2F|AFAd ~f3g|afef d~B3|1Adfe dcde:|2Adfe d3B||
albertroad.htmlalbertroad.htmlalbertroad.htmlalbertroad.htmlalbertroad.htmlalbertroad.htmlalbertroad.html